symbols/web/sports/materialsymbolsrounded/sports_wght600_48px.svg

<svg xmlns="http://www.w3.org/2000/svg" height="48" width="48"><path d="M22.25 38.65q-5.35 0-9-3.675Q9.6 31.3 9.6 26q0-.45.05-.95.05-.5.1-.9-.15.1-.375.125-.225.025-.475.025-2.45 0-4.05-1.575-1.6-1.575-1.6-4.025 0-2.5 1.575-4.1Q6.4 13 8.85 13q1.65 0 3.125.975T14.1 16.35q1.45-1.25 3.6-2.125 2.15-.875 4.6-.875h20.45q.85 0 1.425.575.575.575.575 1.425V18q0 .85-.575 1.425Q43.6 20 42.75 20H34.9v6q0 5.3-3.65 8.975t-9 3.675ZM8.9 20.7q.9 0 1.45-.55.55-.55.55-1.45 0-.9-.55-1.45-.55-.55-1.45-.55-.9 0-1.45.55-.55.55-.55 1.45 0 .9.55 1.45.55.55 1.45.55ZM22.25 33q3 0 5-2t2-5q0-3-2-5t-5-2q-3 0-5 2t-2 5q0 3 2 5t5 2Zm0-3q1.65 0 2.825-1.175Q26.25 27.65 26.25 26q0-1.65-1.175-2.825Q23.9 22 22.25 22q-1.65 0-2.825 1.175Q18.25 24.35 18.25 26q0 1.65 1.175 2.825Q20.6 30 22.25 30Zm0-4Z"/></svg>

<svg xmlns="http://www.w3.org/2000/svg" height="48" width="48"><path d="M22.25 38.65Q16.9 38.65 13.25 34.975Q9.6 31.3 9.6 26Q9.6 25.55 9.65 25.05Q9.7 24.55 9.75 24.15Q9.6 24.25 9.375 24.275Q9.15 24.3 8.9 24.3Q6.45 24.3 4.85 22.725Q3.25 21.15 3.25 18.7Q3.25 16.2 4.825 14.6Q6.4 13 8.85 13Q10.5 13 11.975 13.975Q13.45 14.95 14.1 16.35Q15.55 15.1 17.7 14.225Q19.85 13.35 22.3 13.35H42.75Q43.6 13.35 44.175 13.925Q44.75 14.5 44.75 15.35V18Q44.75 18.85 44.175 19.425Q43.6 20 42.75 20H34.9V26Q34.9 31.3 31.25 34.975Q27.6 38.65 22.25 38.65ZM8.9 20.7Q9.8 20.7 10.35 20.15Q10.9 19.6 10.9 18.7Q10.9 17.8 10.35 17.25Q9.8 16.7 8.9 16.7Q8 16.7 7.45 17.25Q6.9 17.8 6.9 18.7Q6.9 19.6 7.45 20.15Q8 20.7 8.9 20.7ZM22.25 33Q25.25 33 27.25 31Q29.25 29 29.25 26Q29.25 23 27.25 21Q25.25 19 22.25 19Q19.25 19 17.25 21Q15.25 23 15.25 26Q15.25 29 17.25 31Q19.25 33 22.25 33ZM22.25 30Q23.9 30 25.075 28.825Q26.25 27.65 26.25 26Q26.25 24.35 25.075 23.175Q23.9 22 22.25 22Q20.6 22 19.425 23.175Q18.25 24.35 18.25 26Q18.25 27.65 19.425 28.825Q20.6 30 22.25 30ZM22.25 26Q22.25 26 22.25 26Q22.25 26 22.25 26Q22.25 26 22.25 26Q22.25 26 22.25 26Q22.25 26 22.25 26Q22.25 26 22.25 26Q22.25 26 22.25 26Q22.25 26 22.25 26Z"/></svg>
